**harm	**harte	**kern	**silbe	**kern	**silbe	**rhyme	**timestamp	**phrase	**leadinstrument
*M4/4	*M4/4	*ICvox	*	*ICvox	*	*	*	*	*
*	*	*VRlead	*	*VRharmonize	*	*	*	*	*
*	*	*Hstimme	*	*Nstimme	*	*	*	*	*
*G:	*G:	*G:	*	*G:	*	*	*	*	*
*	*	*M4/4	*	*M4/4	*	*	*	*	*
*	*	*clefG2	*	*clefG2	*	*	*	*	*
1r;	N	r;	.	r;	.	.	0	.	r
=1	=1	=1	=1	=1	=1	=1	=1	=1	=1
*>Letter>A	*>Letter>A	*>Letter>A	*>Letter>A	*>Letter>A	*>Letter>A	*>Letter>A	*>Letter>A	*>Letter>A	*>Letter>A
*>Label>Intro	*>Label>Intro	*>Label>Intro	*>Label>Intro	*>Label>Intro	*>Label>Intro	*>Label>Intro	*>Label>Intro	*>Label>Intro	*>Label>Intro
1I	G:maj	1r	.	1r	.	.	0.232	newline	guitar
=2	=2	=2	=2	=2	=2	=2	=2	=2	=2
1I7	G:maj7	1r	.	1r	.	.	2.068	.	guitar
=3	=3	=3	=3	=3	=3	=3	=3	=3	=3
1IV	C:maj	1r	.	1r	.	.	3.904	.	guitar
=4	=4	=4	=4	=4	=4	=4	=4	=4	=4
1IV	C:maj	1r	.	1r	.	.	5.74	.	guitar
=5	=5	=5	=5	=5	=5	=5	=5	=5	=5
1ii	A:min	1r	.	1r	.	.	7.576	newline	guitar
=6	=6	=6	=6	=6	=6	=6	=6	=6	=6
1V7	D:7	1r	.	1r	.	.	9.375	.	guitar
=7	=7	=7	=7	=7	=7	=7	=7	=7	=7
1I	G:maj	1r	.	1r	.	.	11.174	.	guitar
=8	=8	=8	=8	=8	=8	=8	=8	=8	=8
1I	G:maj	1r	.	1r	.	.	12.973	.	guitar
=9	=9	=9	=9	=9	=9	=9	=9	=9	=9
*>Letter>B	*>Letter>B	*>Letter>B	*>Letter>B	*>Letter>B	*>Letter>B	*>Letter>B	*>Letter>B	*>Letter>B	*>Letter>B
*>Label>Verse	*>Label>Verse	*>Label>Verse	*>Label>Verse	*>Label>Verse	*>Label>Verse	*>Label>Verse	*>Label>Verse	*>Label>Verse	*>Label>Verse
1I	G:maj	8B	Ci-	1r	.	.	14.772	newline	voice
.	.	4B	-ty	.	.	a	.	.	.
.	.	4.B	girls	.	.	B	.	.	.
.	.	4B	just	.	.	.	.	.	.
=10	=10	=10	=10	=10	=10	=10	=10	=10	=10
1I7	G:maj7	4B	seem	1r	.	A	16.582	.	voice
.	.	8B	to	.	.	.	.	.	.
.	.	4.B	find	.	.	.	.	.	.
.	.	4B	out	.	.	.	.	.	.
=11	=11	=11	=11	=11	=11	=11	=11	=11	=11
1IV	C:maj	16B	ear-	1r	.	(B	18.392	.	voice
.	.	16A	_	.	.	.	.	.	.
.	.	8G	_	.	.	.	.	.	.
.	.	2G	-ly	.	.	a)	.	.	.
.	.	4r	.	.	.	.	.	.	.
=12	=12	=12	=12	=12	=12	=12	=12	=12	=12
1IV	C:maj	1r	.	1r	.	.	20.202	.	voice
=13	=13	=13	=13	=13	=13	=13	=13	=13	=13
1ii	A:min	4A	how	1r	.	.	22.012	newline	voice
.	.	8A	to	.	.	.	.	.	.
.	.	4A	o-	.	.	.	.	.	.
.	.	8A	-pen	.	.	.	.	.	.
.	.	4B	_	.	.	.	.	.	.
=14	=14	=14	=14	=14	=14	=14	=14	=14	=14
1ii	A:min	8A	doors	1r	.	B	23.843	.	voice
.	.	4G	_	.	.	.	.	.	.
.	.	8G	with	.	.	.	.	.	.
.	.	8F#	just	.	.	.	.	.	.
.	.	8G	a	.	.	.	.	.	.
.	.	8A	_	.	.	.	.	.	.
.	.	[8A	smile	.	.	C	.	.	.
=15	=15	=15	=15	=15	=15	=15	=15	=15	=15
1V7	D:7	4A]	_	1r	.	.	25.674	.	voice
.	.	4r	.	.	.	.	.	.	.
.	.	2r	.	.	.	.	.	.	.
=16	=16	=16	=16	=16	=16	=16	=16	=16	=16
1V7	D:7	2.r	.	1r	.	.	27.505	.	voice
.	.	8r	.	.	.	.	.	.	.
.	.	8G	A	.	.	.	.	.	.
=17	=17	=17	=17	=17	=17	=17	=17	=17	=17
1I	G:maj	8B	rich	1r	.	.	29.336	newline	voice
.	.	4B	old	.	.	.	.	.	.
.	.	4B	man	.	.	.	.	.	.
.	.	4.r	.	.	.	.	.	.	.
=18	=18	=18	=18	=18	=18	=18	=18	=18	=18
1I7	G:maj7	8B	She	1r	.	A	31.148	.	voice
.	.	4.B	won't	.	.	.	.	.	.
.	.	4B	have	.	.	.	.	.	.
.	.	8A	to	.	.	.	.	.	.
.	.	8A	wo-	.	.	(B	.	.	.
=19	=19	=19	=19	=19	=19	=19	=19	=19	=19
1IV	C:maj	8G	_	1r	.	.	32.961	.	voice
.	.	4.G	-rry	.	.	a)	.	.	.
.	.	2r	.	.	.	.	.	.	.
=20	=20	=20	=20	=20	=20	=20	=20	=20	=20
1IV	C:maj	2.r	.	1r	.	.	34.773	.	voice
.	.	8r	.	.	.	.	.	.	.
.	.	8E	She'll	.	.	A	.	.	.
=21	=21	=21	=21	=21	=21	=21	=21	=21	=21
1ii	A:min	8A	dress	1r	.	.	36.586	newline	voice
.	.	4.A	up	.	.	.	.	.	.
.	.	4A	all	.	.	.	.	.	.
.	.	8B	in	.	.	.	.	.	.
.	.	16B	lace	.	.	.	.	.	.
.	.	[16G	_	.	.	.	.	.	.
=22	=22	=22	=22	=22	=22	=22	=22	=22	=22
1IV	C:maj	8G]	_	1r	.	.	38.395	.	voice
.	.	8r	.	.	.	.	.	.	.
.	.	8r	.	.	.	.	.	.	.
.	.	8E	and	.	.	.	.	.	.
.	.	8E	go	.	.	.	.	.	.
.	.	4G	in	.	.	.	.	.	.
.	.	8A	style	.	.	C	.	.	.
=23	=23	=23	=23	=23	=23	=23	=23	=23	=23
1I	G:maj	2.G	_	1r	.	.	40.204	.	voice
.	.	4r	.	.	.	.	.	.	.
=24	=24	=24	=24	=24	=24	=24	=24	=24	=24
1I	G:maj	1r	.	1r	.	.	42.013	.	voice
=25	=25	=25	=25	=25	=25	=25	=25	=25	=25
*>Letter>B	*>Letter>B	*>Letter>B	*>Letter>B	*>Letter>B	*>Letter>B	*>Letter>B	*>Letter>B	*>Letter>B	*>Letter>B
*>Label>Verse	*>Label>Verse	*>Label>Verse	*>Label>Verse	*>Label>Verse	*>Label>Verse	*>Label>Verse	*>Label>Verse	*>Label>Verse	*>Label>Verse
1I	G:maj	8B	Late	1r	.	.	43.822	newline	voice
.	.	4B	at	.	.	.	.	.	.
.	.	4B	night	.	.	C	.	.	.
.	.	8r	.	.	.	.	.	.	.
.	.	8r	.	.	.	.	.	.	.
.	.	8G	a	.	.	.	.	.	.
=26	=26	=26	=26	=26	=26	=26	=26	=26	=26
1I7	G:maj7	8B	big	1r	.	.	45.627	.	voice
.	.	4B	old	.	.	.	.	.	.
.	.	4B	house	.	.	.	.	.	.
.	.	4d	gets	.	.	.	.	.	.
.	.	16B	lone-	.	.	.	.	.	.
.	.	16A	_	.	.	.	.	.	.
=27	=27	=27	=27	=27	=27	=27	=27	=27	=27
1IV	C:maj	8G	_	1r	.	.	47.432	.	voice
.	.	4.G	-ly	.	.	a	.	.	.
.	.	2r	.	.	.	.	.	.	.
=28	=28	=28	=28	=28	=28	=28	=28	=28	=28
1IV	C:maj	2.r	.	1r	.	.	49.237	.	voice
.	.	8E	I	.	.	.	.	.	.
.	.	8G	guess	.	.	.	.	.	.
=29	=29	=29	=29	=29	=29	=29	=29	=29	=29
1ii	A:min	8A	ev-	1r	.	.	51.043	newline	voice
.	.	4A	-ery	.	.	a	.	.	.
.	.	2A	form	.	.	.	.	.	.
.	.	8B	of	.	.	.	.	.	.
=30	=30	=30	=30	=30	=30	=30	=30	=30	=30
1ii	A:min	8A	re-	1r	.	.	52.853	.	voice
.	.	4.G	-fuge	.	.	.	.	.	.
.	.	8F#	has	.	.	.	.	.	.
.	.	4G	it's	.	.	.	.	.	.
.	.	[8A	price	.	.	C	.	.	.
=31	=31	=31	=31	=31	=31	=31	=31	=31	=31
1V7	D:7	8A]	_	1r	.	.	54.663	.	voice
.	.	8B	_	.	.	.	.	.	.
.	.	4r	.	.	.	.	.	.	.
.	.	2r	.	.	.	.	.	.	.
=32	=32	=32	=32	=32	=32	=32	=32	=32	=32
1V7	D:7	2.r	.	1r	.	.	56.473	.	voice
.	.	8G	And	.	.	.	.	.	.
.	.	8G	it	.	.	.	.	.	.
=33	=33	=33	=33	=33	=33	=33	=33	=33	=33
1I	G:maj	8B	breaks	1r	.	.	58.283	newline	voice
.	.	4B	her	.	.	.	.	.	.
.	.	4B	heart	.	.	.	.	.	.
.	.	8r	.	.	.	.	.	.	.
.	.	8r	.	.	.	.	.	.	.
.	.	8G	to	.	.	.	.	.	.
=34	=34	=34	=34	=34	=34	=34	=34	=34	=34
1I7	G:maj7	8B	think	1r	.	A	60.107	.	voice
.	.	4B	her	.	.	b	.	.	.
.	.	4.d	love	.	.	.	.	.	.
.	.	8B	is	.	.	.	.	.	.
.	.	16B	on-	.	.	.	.	.	.
.	.	16A	_	.	.	.	.	.	.
=35	=35	=35	=35	=35	=35	=35	=35	=35	=35
1IV	C:maj	8G	_	1r	.	.	61.932	.	voice
.	.	4.G	-ly	.	.	a	.	.	.
.	.	2r	.	.	.	.	.	.	.
=36	=36	=36	=36	=36	=36	=36	=36	=36	=36
1IV	C:maj	2.r	.	1r	.	.	63.756	.	voice
.	.	8E	gi-	.	.	.	.	.	.
.	.	8G	-ven	.	.	.	.	.	.
=37	=37	=37	=37	=37	=37	=37	=37	=37	=37
1ii	A:min	8A	to	1r	.	.	65.58	newline	voice
.	.	4A	a	.	.	.	.	.	.
.	.	4.A	man	.	.	D	.	.	.
.	.	8B	with	.	.	.	.	.	.
.	.	8A	hands	.	.	D	.	.	.
=38	=38	=38	=38	=38	=38	=38	=38	=38	=38
1IV	C:maj	4.G	_	1r	.	.	67.397	.	voice
.	.	8G	as	.	.	.	.	.	.
.	.	4E	cold	.	.	.	.	.	.
.	.	8G	as	.	.	.	.	.	.
.	.	[8G	ice	.	.	C	.	.	.
=39	=39	=39	=39	=39	=39	=39	=39	=39	=39
1I	G:maj	4G]	_	1r	.	.	69.214	.	voice
.	.	4r	.	.	.	.	.	.	.
.	.	2r	.	.	.	.	.	.	.
=40	=40	=40	=40	=40	=40	=40	=40	=40	=40
2IV	C:maj	2r	.	2r	.	.	71.03	.	voice
2V7	D:7	4r	.	4r	.	.	71.939	.	voice
.	.	8G	So	8B	So	.	.	.	.
.	.	8G	she	8B	she	.	.	.	.
=41	=41	=41	=41	=41	=41	=41	=41	=41	=41
*>Letter>B	*>Letter>B	*>Letter>B	*>Letter>B	*>Letter>B	*>Letter>B	*>Letter>B	*>Letter>B	*>Letter>B	*>Letter>B
*>Label>Verse	*>Label>Verse	*>Label>Verse	*>Label>Verse	*>Label>Verse	*>Label>Verse	*>Label>Verse	*>Label>Verse	*>Label>Verse	*>Label>Verse
1I	G:maj	8B	tells	8d	tells	.	72.847	newline	voice
.	.	4.B	him	4.d	him	.	.	.	.
.	.	8B	she	8d	she	.	.	.	.
.	.	4.B	must	4.d	must	.	.	.	.
=42	=42	=42	=42	=42	=42	=42	=42	=42	=42
1I7	G:maj7	8B	go	8d	go	.	74.651	.	voice
.	.	4.B	out	4.d	out	.	.	.	.
.	.	4B	for	4e	for	.	.	.	.
.	.	8A	the	8d	the	.	.	.	.
.	.	16B	eve-	16d	eve-	(A	.	.	.
.	.	16A	_	16c	_	.	.	.	.
=43	=43	=43	=43	=43	=43	=43	=43	=43	=43
1IV	C:maj	8G	_	8B	_	.	76.455	.	voice
.	.	4.G	-nin'	4.B	-nin'	a)	.	.	.
.	.	2r	.	2r	.	.	.	.	.
=44	=44	=44	=44	=44	=44	=44	=44	=44	=44
1IV	C:maj	2r	.	2r	.	.	78.259	.	voice
.	.	4.r	.	4.r	.	.	.	.	.
.	.	8G	to	8B	to	.	.	.	.
=45	=45	=45	=45	=45	=45	=45	=45	=45	=45
1ii	A:min	8A	com-	8c	com-	.	80.063	newline	voice
.	.	4.A	-fort	4.c	-fort	.	.	.	.
.	.	8A	an	8c	an	.	.	.	.
.	.	4A	old	4c	old	.	.	.	.
.	.	8G	friend	[8c	friend	.	.	.	.
=46	=46	=46	=46	=46	=46	=46	=46	=46	=46
1ii	A:min	4A	_	4c]	_	.	81.886	.	voice
.	.	4G	who's	4r	.	.	.	.	.
.	.	8F#	feel-	8B	feel-	(A	.	.	.
.	.	4G	-in'	4c	-in'	a)	.	.	.
.	.	[8A	down	[8c	down	E	.	.	.
=47	=47	=47	=47	=47	=47	=47	=47	=47	=47
1V7	D:7	4A]	_	4c]	_	.	83.709	.	voice
.	.	4r	.	4r	.	.	.	.	.
.	.	2r	.	2r	.	.	.	.	.
=48	=48	=48	=48	=48	=48	=48	=48	=48	=48
1V7	D:7	2.r	.	2.r	.	.	85.532	.	voice
.	.	8r	.	8r	.	.	.	.	.
.	.	8G	But	8B	But	.	.	.	.
=49	=49	=49	=49	=49	=49	=49	=49	=49	=49
1I	G:maj	8B	he	8d	he	.	87.355	newline	voice
.	.	4B	knows	4d	knows	.	.	.	.
.	.	4B	where	4d	where	.	.	.	.
.	.	4B	she's	4d	she's	.	.	.	.
.	.	[8e	go-	[8g	go-	.	.	.	.
=50	=50	=50	=50	=50	=50	=50	=50	=50	=50
1I7	G:maj7	4e]	_	4g]	_	.	89.173	.	voice
.	.	4d	-in'	4f#	-in'	.	.	.	.
.	.	4B	as	4d	as	.	.	.	.
.	.	4A	she's	4d	she's	.	.	.	.
=51	=51	=51	=51	=51	=51	=51	=51	=51	=51
1IV	C:maj	16B	lea-	16d	lea-	(A	90.992	.	voice
.	.	16A	_	16c	_	.	.	.	.
.	.	8G	_	8B	_	.	.	.	.
.	.	4G	-vin'	4B	-vin'	a)	.	.	.
.	.	2r	.	2r	.	.	.	.	.
=52	=52	=52	=52	=52	=52	=52	=52	=52	=52
1IV	C:maj	2.r	.	2.r	.	.	92.811	.	voice
.	.	8B	She	8e	She	.	.	.	.
.	.	8G	is	8d	is	.	.	.	.
=53	=53	=53	=53	=53	=53	=53	=53	=53	=53
1ii	A:min	8A	head-	8c	head-	.	94.63	newline	voice
.	.	4A	-ed	4c	-ed	.	.	.	.
.	.	2A	for	2c	for	.	.	.	.
.	.	8B	the	8d	the	.	.	.	.
=54	=54	=54	=54	=54	=54	=54	=54	=54	=54
1IV	C:maj	8A	cheat-	8c	cheat-	(A	96.452	.	voice
.	.	4.G	-in'	4.B	-in'	a)	.	.	.
.	.	4E	side	4G	side	.	.	.	.
.	.	8G	of	8B	of	.	.	.	.
.	.	[8G	town	[8B	town	E	.	.	.
=55	=55	=55	=55	=55	=55	=55	=55	=55	=55
1I	G:maj	4G]	_	4B]	_	.	98.274	.	voice
.	.	4r	.	4r	.	.	.	.	.
.	.	2r	.	2r	.	.	.	.	.
=56	=56	=56	=56	=56	=56	=56	=56	=56	=56
1I	G:maj	2r	.	2r	.	.	100.096	.	voice
.	.	8B	You	8d	You	.	.	.	.
.	.	4.d	can't	4.g	can't	.	.	.	.
=57	=57	=57	=57	=57	=57	=57	=57	=57	=57
*>Letter>C	*>Letter>C	*>Letter>C	*>Letter>C	*>Letter>C	*>Letter>C	*>Letter>C	*>Letter>C	*>Letter>C	*>Letter>C
*>Label>Chorus	*>Label>Chorus	*>Label>Chorus	*>Label>Chorus	*>Label>Chorus	*>Label>Chorus	*>Label>Chorus	*>Label>Chorus	*>Label>Chorus	*>Label>Chorus
1I	G:maj	[1d	hide	[1g	hide	C	101.918	newline	voice
=58	=58	=58	=58	=58	=58	=58	=58	=58	=58
1IVc	C:maj/5	4d]	_	4g]	_	.	103.759	.	voice
.	.	4d	your	4g	your	.	.	.	.
.	.	16B	ly-	16d	ly-	(C	.	.	.
.	.	16A	_	16c	_	.	.	.	.
.	.	8G	_	8B	_	.	.	.	.
.	.	8G	-in'	8B	-in'	c)	.	.	.
.	.	[8G	eyes	[8B	eyes	C	.	.	.
=59	=59	=59	=59	=59	=59	=59	=59	=59	=59
1I	G:maj	2.G]	_	2.B]	_	.	105.6	.	voice
.	.	4r	.	4r	.	.	.	.	.
=60	=60	=60	=60	=60	=60	=60	=60	=60	=60
1I	G:maj	2r	.	2r	.	.	107.441	.	voice
.	.	8B	And	8d	And	.	.	.	.
.	.	4.d	your	4.f#	your	.	.	.	.
=61	=61	=61	=61	=61	=61	=61	=61	=61	=61
1vi	E:min	[1d	smile	1g	smile	C	109.282	newline	voice
=62	=62	=62	=62	=62	=62	=62	=62	=62	=62
1iii	B:min	4d]	_	4f#	_	.	111.084	.	voice
.	.	8d	is	8f#	is	.	.	.	.
.	.	8d	a	8f#	a	.	.	.	.
.	.	16B	thin	16d	thin	.	.	.	.
.	.	16A	_	16c	_	.	.	.	.
.	.	8G	_	8B	_	.	.	.	.
.	.	8G	dis-	8B	dis-	.	.	.	.
.	.	8A	_	8c	_	.	.	.	.
=63	=63	=63	=63	=63	=63	=63	=63	=63	=63
1ii	A:min	1A	-guise	1c	-guise	C	112.885	.	voice
=64	=64	=64	=64	=64	=64	=64	=64	=64	=64
1V7	D:7	4r	.	4r	.	.	114.686	.	voice
.	.	8r	.	8r	.	.	.	.	.
.	.	8G	I	8d	I	.	.	.	.
.	.	4B	thought	4d	thought	.	.	.	.
.	.	4d	by	4g	by	.	.	.	.
=65	=65	=65	=65	=65	=65	=65	=65	=65	=65
1I	G:maj	[1d	now	[1g	now	.	116.487	newline	voice
=66	=66	=66	=66	=66	=66	=66	=66	=66	=66
1Im7	G:7	4d]	_	4g]	_	.	118.3	.	voice
.	.	4d	you'd	4g	you'd	.	.	.	.
.	.	16B	re-	16d	re-	.	.	.	.
.	.	16A	_	16c	_	.	.	.	.
.	.	8G	_	8B	_	.	.	.	.
.	.	8G	-a-	8B	-a-	.	.	.	.
.	.	[8G	-lize	[8c	-lize	C	.	.	.
=67	=67	=67	=67	=67	=67	=67	=67	=67	=67
1IV	C:maj	1G]	_	1c]	_	.	120.113	.	voice
=68	=68	=68	=68	=68	=68	=68	=68	=68	=68
1II	A:maj	2A	_	2c#	_	.	121.926	.	voice
.	.	4.r	.	4.r	.	.	.	.	.
.	.	8G	there	8c	there	.	.	.	.
=69	=69	=69	=69	=69	=69	=69	=69	=69	=69
1ii	A:min	8A	ain't	8c	ain't	.	123.74	newline	voice
.	.	4A	no	4c	no	.	.	.	.
.	.	4.A	way	4.c	way	.	.	.	.
.	.	8B	to	8d	to	.	.	.	.
.	.	8A	hide	8c	hide	C	.	.	.
=70	=70	=70	=70	=70	=70	=70	=70	=70	=70
1V7	D:7	4G	_	4c	_	.	125.596	.	voice
.	.	4G	your	4c	your	.	.	.	.
.	.	4E	ly-	4c	ly-	(C	.	.	.
.	.	8G	-in'	8c	-in'	c)	.	.	.
.	.	[8G	eyes	8c	eyes	C	.	.	.
=71	=71	=71	=71	=71	=71	=71	=71	=71	=71
*>Letter>A	*>Letter>A	*>Letter>A	*>Letter>A	*>Letter>A	*>Letter>A	*>Letter>A	*>Letter>A	*>Letter>A	*>Letter>A
*>Label>Interlude	*>Label>Interlude	*>Label>Interlude	*>Label>Interlude	*>Label>Interlude	*>Label>Interlude	*>Label>Interlude	*>Label>Interlude	*>Label>Interlude	*>Label>Interlude
1I	G:maj	1G]	_	1B	_	.	127.452	->newline	guitar
=72	=72	=72	=72	=72	=72	=72	=72	=72	=72
1I7	G:maj7	1r	.	1r	.	.	129.254	.	guitar
=73	=73	=73	=73	=73	=73	=73	=73	=73	=73
1IV	C:maj	1r	.	1r	.	.	131.055	.	guitar
=74	=74	=74	=74	=74	=74	=74	=74	=74	=74
1IV	C:maj	1r	.	1r	.	.	132.856	.	guitar
=75	=75	=75	=75	=75	=75	=75	=75	=75	=75
1ii	A:min	1r	.	1r	.	.	134.657	newline	guitar
=76	=76	=76	=76	=76	=76	=76	=76	=76	=76
1V7	D:7	1r	.	1r	.	.	136.458	.	guitar
=77	=77	=77	=77	=77	=77	=77	=77	=77	=77
1I	G:maj	1r	.	1r	.	.	138.259	.	guitar
=78	=78	=78	=78	=78	=78	=78	=78	=78	=78
1I	G:maj	2.r	.	1r	.	.	140.06	.	guitar
.	.	8A	On	.	.	.	.	.	.
.	.	8G	the	.	.	.	.	.	.
=79	=79	=79	=79	=79	=79	=79	=79	=79	=79
*>Letter>B	*>Letter>B	*>Letter>B	*>Letter>B	*>Letter>B	*>Letter>B	*>Letter>B	*>Letter>B	*>Letter>B	*>Letter>B
*>Label>Verse	*>Label>Verse	*>Label>Verse	*>Label>Verse	*>Label>Verse	*>Label>Verse	*>Label>Verse	*>Label>Verse	*>Label>Verse	*>Label>Verse
1I	G:maj	8B	o-	1r	.	.	141.861	newline	voice
.	.	4.B	-ther	.	.	.	.	.	.
.	.	4B	side	.	.	.	.	.	.
.	.	8A	of	.	.	.	.	.	.
.	.	[8B	town	.	.	.	.	.	.
=80	=80	=80	=80	=80	=80	=80	=80	=80	=80
1I7	G:maj7	4B]	_	1r	.	.	143.664	.	voice
.	.	8A	a	.	.	.	.	.	.
.	.	4.B	boy	.	.	.	.	.	.
.	.	8B	is	.	.	.	.	.	.
.	.	8A	wai-	.	.	(F	.	.	.
=81	=81	=81	=81	=81	=81	=81	=81	=81	=81
1IV	C:maj	8G	_	1r	.	.	145.467	.	voice
.	.	4.G	-ting	.	.	f)	.	.	.
.	.	2r	.	.	.	.	.	.	.
=82	=82	=82	=82	=82	=82	=82	=82	=82	=82
1IV	C:maj	2r	.	1r	.	.	147.269	.	voice
.	.	4.r	.	.	.	.	.	.	.
.	.	8G	with	.	.	.	.	.	.
=83	=83	=83	=83	=83	=83	=83	=83	=83	=83
1ii	A:min	4A	fie-	1r	.	.	149.072	newline	voice
.	.	8A	-ry	.	.	.	.	.	.
.	.	4.A	eyes	.	.	.	.	.	.
.	.	8A	and	.	.	.	.	.	.
.	.	16B	dreams	.	.	.	.	.	.
.	.	16A	_	.	.	.	.	.	.
=84	=84	=84	=84	=84	=84	=84	=84	=84	=84
1ii	A:min	4.G	_	1r	.	.	150.878	.	voice
.	.	4e	no	.	.	.	.	.	.
.	.	4d	one	.	.	.	.	.	.
.	.	8B	could	.	.	.	.	.	.
=85	=85	=85	=85	=85	=85	=85	=85	=85	=85
1V7	D:7	8d	steal	1r	.	A	152.684	.	voice
.	.	8B	_	.	.	.	.	.	.
.	.	8B	_	.	.	.	.	.	.
.	.	4.A	_	.	.	.	.	.	.
.	.	4r	.	.	.	.	.	.	.
=86	=86	=86	=86	=86	=86	=86	=86	=86	=86
1V7	D:7	2.r	.	1r	.	.	154.49	.	voice
.	.	8r	.	.	.	.	.	.	.
.	.	8G	She	.	.	.	.	.	.
=87	=87	=87	=87	=87	=87	=87	=87	=87	=87
1I	G:maj	4.B	drives	1r	.	.	156.296	newline	voice
.	.	4.B	on	.	.	.	.	.	.
.	.	8B	through	.	.	.	.	.	.
.	.	8A	the	.	.	.	.	.	.
=88	=88	=88	=88	=88	=88	=88	=88	=88	=88
1I7	G:maj7	4B	night	1r	.	.	158.102	.	voice
.	.	8r	.	.	.	.	.	.	.
.	.	4B	an-	.	.	.	.	.	.
.	.	8B	-ti-	.	.	.	.	.	.
.	.	8A	-ci-	.	.	.	.	.	.
.	.	16B	-pat-	.	.	(F	.	.	.
.	.	16A	_	.	.	.	.	.	.
=89	=89	=89	=89	=89	=89	=89	=89	=89	=89
1IV	C:maj	4G	_	1r	.	.	159.908	.	voice
.	.	2G	-ing	.	.	f)	.	.	.
.	.	4r	.	.	.	.	.	.	.
=90	=90	=90	=90	=90	=90	=90	=90	=90	=90
1IV	C:maj	2.r	.	1r	.	.	161.714	.	voice
.	.	8E	'cause	.	.	.	.	.	.
.	.	8G	he	.	.	.	.	.	.
=91	=91	=91	=91	=91	=91	=91	=91	=91	=91
1ii	A:min	8A	makes	1r	.	.	163.52	newline	voice
.	.	4A	her	.	.	.	.	.	.
.	.	8A	feel	.	.	A	.	.	.
.	.	16B	_	.	.	.	.	.	.
.	.	16A	_	.	.	.	.	.	.
.	.	4G	_	.	.	.	.	.	.
.	.	8G	the	.	.	.	.	.	.
=92	=92	=92	=92	=92	=92	=92	=92	=92	=92
1IV	C:maj	8A	way	1r	.	F	165.323	.	voice
.	.	8G	_	.	.	.	.	.	.
.	.	8r	.	.	.	.	.	.	.
.	.	8G	she	.	.	.	.	.	.
.	.	4E	used	.	.	.	.	.	.
.	.	8G	to	.	.	.	.	.	.
.	.	[8A	feel	.	.	A	.	.	.
=93	=93	=93	=93	=93	=93	=93	=93	=93	=93
1I	G:maj	8A]	_	1r	.	.	167.125	.	voice
.	.	4.G	_	.	.	.	.	.	.
.	.	2r	.	.	.	.	.	.	.
=94	=94	=94	=94	=94	=94	=94	=94	=94	=94
2IV	C:maj	2r	.	1r	.	.	168.928	.	voice
2V7	D:7	4.r	.	.	.	.	169.829	.	voice
.	.	8G	She	.	.	.	.	.	.
=95	=95	=95	=95	=95	=95	=95	=95	=95	=95
*>Letter>B	*>Letter>B	*>Letter>B	*>Letter>B	*>Letter>B	*>Letter>B	*>Letter>B	*>Letter>B	*>Letter>B	*>Letter>B
*>Label>Verse	*>Label>Verse	*>Label>Verse	*>Label>Verse	*>Label>Verse	*>Label>Verse	*>Label>Verse	*>Label>Verse	*>Label>Verse	*>Label>Verse
1I	G:maj	8B	rush-	1r	.	.	170.73	newline	voice
.	.	2B	-es	.	.	.	.	.	.
.	.	8B	to	.	.	.	.	.	.
.	.	8A	his	.	.	.	.	.	.
.	.	[8B	arms	.	.	.	.	.	.
=96	=96	=96	=96	=96	=96	=96	=96	=96	=96
1I7	G:maj7	4.B]	_	1r	.	.	172.555	.	voice
.	.	4B	They	.	.	.	.	.	.
.	.	4d	fall	.	.	.	.	.	.
.	.	8B	to-	.	.	.	.	.	.
=97	=97	=97	=97	=97	=97	=97	=97	=97	=97
1IV	C:maj	16B	-ge-	1r	.	.	174.379	.	voice
.	.	16A	_	.	.	.	.	.	.
.	.	8G	_	.	.	.	.	.	.
.	.	4G	-ther	.	.	b	.	.	.
.	.	2r	.	.	.	.	.	.	.
=98	=98	=98	=98	=98	=98	=98	=98	=98	=98
1IV	C:maj	2r	.	1r	.	.	176.203	.	voice
.	.	4.r	.	.	.	.	.	.	.
.	.	8G	She	.	.	.	.	.	.
=99	=99	=99	=99	=99	=99	=99	=99	=99	=99
1ii	A:min	8A	whis-	1r	.	.	178.027	newline	voice
.	.	2A	-pers	.	.	b	.	.	.
.	.	8A	that	.	.	.	.	.	.
.	.	8A	it's	.	.	.	.	.	.
.	.	[8B	on-	.	.	.	.	.	.
=100	=100	=100	=100	=100	=100	=100	=100	=100	=100
1ii	A:min	8B]	_	1r	.	.	179.829	.	voice
.	.	4.B	-ly	.	.	a	.	.	.
.	.	8r	.	.	.	.	.	.	.
.	.	4B	for	.	.	.	.	.	.
.	.	8B	a	.	.	.	.	.	.
=101	=101	=101	=101	=101	=101	=101	=101	=101	=101
1V7	D:7	8B	while	1r	.	C	181.63	.	voice
.	.	4.A	_	.	.	.	.	.	.
.	.	2r	.	.	.	.	.	.	.
=102	=102	=102	=102	=102	=102	=102	=102	=102	=102
1V7	D:7	2.r	.	2.r	.	.	183.431	.	voice
.	.	8r	.	8r	.	.	.	.	.
.	.	8G	She	8B	She	.	.	.	.
=103	=103	=103	=103	=103	=103	=103	=103	=103	=103
1I	G:maj	4B	swears	4d	swears	.	185.232	newline	voice
.	.	8B	that	8d	that	.	.	.	.
.	.	4.B	soon	4.d	soon	.	.	.	.
.	.	8B	she'll	8d	she'll	.	.	.	.
.	.	8A	be	8c	be	.	.	.	.
=104	=104	=104	=104	=104	=104	=104	=104	=104	=104
1I7	G:maj7	8B	com-	8d	com-	.	187.038	.	voice
.	.	4B	-ing	4d	-ing	.	.	.	.
.	.	4.d	back	4.g	back	.	.	.	.
.	.	8B	for-	8d	for-	.	.	.	.
.	.	16B	-e-	16d	-e-	.	.	.	.
.	.	16A	_	16c	_	.	.	.	.
=105	=105	=105	=105	=105	=105	=105	=105	=105	=105
1IV	C:maj	4G	_	4B	_	.	188.844	.	voice
.	.	4G	-ver	4B	-ver	b	.	.	.
.	.	2r	.	2r	.	.	.	.	.
=106	=106	=106	=106	=106	=106	=106	=106	=106	=106
1IV	C:maj	2.r	.	2.r	.	.	190.65	.	voice
.	.	8r	.	8r	.	.	.	.	.
.	.	8G	She	8B	She	.	.	.	.
=107	=107	=107	=107	=107	=107	=107	=107	=107	=107
1ii	A:min	4A	pulls	4c	pulls	.	192.457	newline	voice
.	.	8A	a-	8c	a-	.	.	.	.
.	.	8A	-way	8c	-way	.	.	.	.
.	.	4B	_	4d	_	.	.	.	.
.	.	8r	.	8r	.	.	.	.	.
.	.	8G	and	8B	and	.	.	.	.
=108	=108	=108	=108	=108	=108	=108	=108	=108	=108
1IV	C:maj	4A	leaves	4c	leaves	A	194.272	.	voice
.	.	4G	him	4B	him	.	.	.	.
.	.	8E	with	8G	with	.	.	.	.
.	.	8G	a	8B	a	.	.	.	.
.	.	4A	smile	4c	smile	C	.	.	.
=109	=109	=109	=109	=109	=109	=109	=109	=109	=109
1I	G:maj	4G	_	4B	_	.	196.087	.	voice
.	.	4r	.	4r	.	.	.	.	.
.	.	2r	.	2r	.	.	.	.	.
=110	=110	=110	=110	=110	=110	=110	=110	=110	=110
1I	G:maj	2r	.	2r	.	.	197.902	.	voice
.	.	8B	You	8d	You	.	.	.	.
.	.	4.d	can't	4.g	can't	.	.	.	.
=111	=111	=111	=111	=111	=111	=111	=111	=111	=111
*>Letter>C	*>Letter>C	*>Letter>C	*>Letter>C	*>Letter>C	*>Letter>C	*>Letter>C	*>Letter>C	*>Letter>C	*>Letter>C
*>Label>Chorus	*>Label>Chorus	*>Label>Chorus	*>Label>Chorus	*>Label>Chorus	*>Label>Chorus	*>Label>Chorus	*>Label>Chorus	*>Label>Chorus	*>Label>Chorus
1I	G:maj	[1d	hide	[1g	hide	C	199.717	newline	voice
=112	=112	=112	=112	=112	=112	=112	=112	=112	=112
1IVc	C:maj/5	4d]	_	4g]	_	.	201.549	.	voice
.	.	4d	your	4g	your	.	.	.	.
.	.	16B	ly-	16d	ly-	(C	.	.	.
.	.	16A	_	16c	_	.	.	.	.
.	.	8G	_	8B	_	.	.	.	.
.	.	8G	-in'	8B	-in'	c)	.	.	.
.	.	[8G	eyes	[8B	eyes	C	.	.	.
=113	=113	=113	=113	=113	=113	=113	=113	=113	=113
1I	G:maj	2.G]	_	2.B]	_	.	203.38	.	voice
.	.	4r	.	4r	.	.	.	.	.
=114	=114	=114	=114	=114	=114	=114	=114	=114	=114
1I	G:maj	2r	.	2r	.	.	205.211	.	voice
.	.	8B	And	8d	And	.	.	.	.
.	.	4.d	your	4.f#	your	.	.	.	.
=115	=115	=115	=115	=115	=115	=115	=115	=115	=115
1vi	E:min	[2e	smile	[2g	smile	C	207.043	newline	voice
.	.	8e]	_	8g]	_	.	.	.	.
.	.	8f#	_	8a	_	.	.	.	.
.	.	8e	_	8g	_	.	.	.	.
.	.	[8d	_	[8f#	_	.	.	.	.
=116	=116	=116	=116	=116	=116	=116	=116	=116	=116
1iii	B:min	4d]	_	4f#]	_	.	208.84	.	voice
.	.	8d	is	8f#	is	.	.	.	.
.	.	8d	a	8f#	a	.	.	.	.
.	.	16B	thin	16d	thin	.	.	.	.
.	.	16A	_	16c	_	.	.	.	.
.	.	8G	_	8B	_	.	.	.	.
.	.	8G	dis-	8B	dis-	.	.	.	.
.	.	8A	_	8c	_	.	.	.	.
=117	=117	=117	=117	=117	=117	=117	=117	=117	=117
1ii	A:min	1A	-guise	1c	-guise	C	210.636	.	voice
=118	=118	=118	=118	=118	=118	=118	=118	=118	=118
1V7	D:7	2r	.	2r	.	.	212.433	.	voice
.	.	4B	thought	4d	thought	.	.	.	.
.	.	4d	by	4g	by	.	.	.	.
=119	=119	=119	=119	=119	=119	=119	=119	=119	=119
1I	G:maj	[1d	now	[1g	now	.	214.23	newline	voice
=120	=120	=120	=120	=120	=120	=120	=120	=120	=120
1Im7	G:7	4d]	_	4g]	_	.	216.052	.	voice
.	.	4d	you'd	4g	you'd	.	.	.	.
.	.	16B	re-	16d	re-	.	.	.	.
.	.	16A	_	16c	_	.	.	.	.
.	.	8G	_	8B	_	.	.	.	.
.	.	8G	-a-	8B	-a-	.	.	.	.
.	.	[8G	-lize	[8c	-lize	C	.	.	.
=121	=121	=121	=121	=121	=121	=121	=121	=121	=121
1IV	C:maj	1G]	_	1c]	_	.	217.874	.	voice
=122	=122	=122	=122	=122	=122	=122	=122	=122	=122
1II	A:maj	2A	_	2c#	_	.	219.695	.	voice
.	.	4.r	.	4.r	.	.	.	.	.
.	.	8G	there	8c	there	.	.	.	.
=123	=123	=123	=123	=123	=123	=123	=123	=123	=123
1ii	A:min	8A	ain't	8c	ain't	.	221.517	newline	voice
.	.	4A	no	4c	no	.	.	.	.
.	.	4.A	way	4.c	way	.	.	.	.
.	.	8B	to	8d	to	.	.	.	.
.	.	8A	hide	8c	hide	C	.	.	.
=124	=124	=124	=124	=124	=124	=124	=124	=124	=124
1V7	D:7	4G	_	4c	_	.	223.318	.	voice
.	.	4G	your	4c	your	.	.	.	.
.	.	4E	ly-	4c	ly-	(C	.	.	.
.	.	8G	-in'	8c	-in'	c)	.	.	.
.	.	[8G	eyes	8c	eyes	C	.	.	.
=125	=125	=125	=125	=125	=125	=125	=125	=125	=125
*>Letter>A	*>Letter>A	*>Letter>A	*>Letter>A	*>Letter>A	*>Letter>A	*>Letter>A	*>Letter>A	*>Letter>A	*>Letter>A
*>Label>Interlude	*>Label>Interlude	*>Label>Interlude	*>Label>Interlude	*>Label>Interlude	*>Label>Interlude	*>Label>Interlude	*>Label>Interlude	*>Label>Interlude	*>Label>Interlude
1I	G:maj	1G]	_	1B	_	.	225.119	->newline	guitar
=126	=126	=126	=126	=126	=126	=126	=126	=126	=126
1I7	G:maj7	1r	.	1r	.	.	226.927	.	guitar
=127	=127	=127	=127	=127	=127	=127	=127	=127	=127
1IV	C:maj	1r	.	1r	.	.	228.734	.	guitar
=128	=128	=128	=128	=128	=128	=128	=128	=128	=128
1IV	C:maj	1r	.	1r	.	.	230.542	.	guitar
=129	=129	=129	=129	=129	=129	=129	=129	=129	=129
1ii	A:min	1r	.	1r	.	.	232.35	newline	guitar
=130	=130	=130	=130	=130	=130	=130	=130	=130	=130
1V7	D:7	1r	.	1r	.	.	234.143	.	guitar
=131	=131	=131	=131	=131	=131	=131	=131	=131	=131
1I	G:maj	1r	.	1r	.	.	235.937	.	guitar
=132	=132	=132	=132	=132	=132	=132	=132	=132	=132
1I	G:maj	1r	.	1r	.	.	237.73	.	guitar
=133	=133	=133	=133	=133	=133	=133	=133	=133	=133
*>Letter>B	*>Letter>B	*>Letter>B	*>Letter>B	*>Letter>B	*>Letter>B	*>Letter>B	*>Letter>B	*>Letter>B	*>Letter>B
*>Label>Verse	*>Label>Verse	*>Label>Verse	*>Label>Verse	*>Label>Verse	*>Label>Verse	*>Label>Verse	*>Label>Verse	*>Label>Verse	*>Label>Verse
1I	G:maj	8B	She	1r	.	.	239.523	newline	voice
.	.	4B	gets	.	.	.	.	.	.
.	.	8B	up	.	.	.	.	.	.
.	.	4.r	.	.	.	.	.	.	.
.	.	8G	and	.	.	.	.	.	.
=134	=134	=134	=134	=134	=134	=134	=134	=134	=134
1I7	G:maj7	4B	pours	1r	.	.	241.321	.	voice
.	.	8A	her-	.	.	b	.	.	.
.	.	4.B	-self	.	.	.	.	.	.
.	.	8A	a	.	.	.	.	.	.
.	.	8A	strong	.	.	G	.	.	.
=135	=135	=135	=135	=135	=135	=135	=135	=135	=135
1IV	C:maj	8G	_	1r	.	.	243.119	.	voice
.	.	[4.G	one	.	.	.	.	.	.
.	.	4G]	_	.	.	.	.	.	.
.	.	4r	.	.	.	.	.	.	.
=136	=136	=136	=136	=136	=136	=136	=136	=136	=136
1IV	C:maj	2r	.	1r	.	.	244.917	.	voice
.	.	4.r	.	.	.	.	.	.	.
.	.	8G	and	.	.	.	.	.	.
=137	=137	=137	=137	=137	=137	=137	=137	=137	=137
1ii	A:min	4A	stares	1r	.	.	246.715	newline	voice
.	.	4A	out	.	.	.	.	.	.
.	.	8A	at	.	.	.	.	.	.
.	.	8A	the	.	.	.	.	.	.
.	.	[4A	stars	.	.	.	.	.	.
=138	=138	=138	=138	=138	=138	=138	=138	=138	=138
1ii	A:min	4.A]	_	1r	.	.	248.506	.	voice
.	.	8G	up	.	.	.	.	.	.
.	.	8F#	in	.	.	.	.	.	.
.	.	4G	the	.	.	.	.	.	.
.	.	[8A	sky	.	.	C	.	.	.
=139	=139	=139	=139	=139	=139	=139	=139	=139	=139
1V7	D:7	2A]	_	1r	.	.	250.296	.	voice
.	.	2r	.	.	.	.	.	.	.
=140	=140	=140	=140	=140	=140	=140	=140	=140	=140
1V7	D:7	2.r	.	1r	.	.	252.086	.	voice
.	.	8r	.	.	.	.	.	.	.
.	.	8G	A-	.	.	.	.	.	.
=141	=141	=141	=141	=141	=141	=141	=141	=141	=141
1I	G:maj	8B	-no-	1r	.	.	253.876	newline	voice
.	.	4B	-ther	.	.	b	.	.	.
.	.	4B	night	.	.	.	.	.	.
.	.	8r	.	.	.	.	.	.	.
.	.	8r	.	.	.	.	.	.	.
.	.	8B	It's	.	.	.	.	.	.
=142	=142	=142	=142	=142	=142	=142	=142	=142	=142
1I7	G:maj7	4e	go-	1r	.	.	255.668	.	voice
.	.	8d	-nna	.	.	.	.	.	.
.	.	4.d	be	.	.	.	.	.	.
.	.	8B	a	.	.	.	.	.	.
.	.	16B	long	.	.	G	.	.	.
.	.	16A	_	.	.	.	.	.	.
=143	=143	=143	=143	=143	=143	=143	=143	=143	=143
1IV	C:maj	4G	_	1r	.	.	257.46	.	voice
.	.	2G	one	.	.	.	.	.	.
.	.	4r	.	.	.	.	.	.	.
=144	=144	=144	=144	=144	=144	=144	=144	=144	=144
1IV	C:maj	2.r	.	1r	.	.	259.252	.	voice
.	.	8r	.	.	.	.	.	.	.
.	.	8G	She	.	.	.	.	.	.
=145	=145	=145	=145	=145	=145	=145	=145	=145	=145
1ii	A:min	4A	draws	1r	.	.	261.043	newline	voice
.	.	8A	the	.	.	.	.	.	.
.	.	4.A	shade	.	.	.	.	.	.
.	.	8B	and	.	.	.	.	.	.
.	.	8A	hangs	.	.	.	.	.	.
=146	=146	=146	=146	=146	=146	=146	=146	=146	=146
1IV	C:maj	4G	_	1r	.	.	262.836	.	voice
.	.	4G	her	.	.	b	.	.	.
.	.	4E	head	.	.	.	.	.	.
.	.	8G	to	.	.	.	.	.	.
.	.	[8G	cry	.	.	C	.	.	.
=147	=147	=147	=147	=147	=147	=147	=147	=147	=147
1I	G:maj	4G]	_	1r	.	.	264.63	.	voice
.	.	4r	.	.	.	.	.	.	.
.	.	2r	.	.	.	.	.	.	.
=148	=148	=148	=148	=148	=148	=148	=148	=148	=148
2IV	C:maj	2r	.	1r	.	.	266.423	.	voice
2V7	D:7	4r	.	.	.	.	267.319	.	voice
.	.	8r	.	.	.	.	.	.	.
.	.	8G	She	.	.	.	.	.	.
=149	=149	=149	=149	=149	=149	=149	=149	=149	=149
*>Letter>B	*>Letter>B	*>Letter>B	*>Letter>B	*>Letter>B	*>Letter>B	*>Letter>B	*>Letter>B	*>Letter>B	*>Letter>B
*>Label>Verse	*>Label>Verse	*>Label>Verse	*>Label>Verse	*>Label>Verse	*>Label>Verse	*>Label>Verse	*>Label>Verse	*>Label>Verse	*>Label>Verse
1I	G:maj	8B	won-	1r	.	.	268.216	newline	voice
.	.	[8B	-ders	.	.	b	.	.	.
.	.	2B]	_	.	.	.	.	.	.
.	.	8B	how	.	.	.	.	.	.
.	.	8A	it	.	.	.	.	.	.
=150	=150	=150	=150	=150	=150	=150	=150	=150	=150
1I7	G:maj7	8B	ev-	1r	.	.	270.023	.	voice
.	.	2B	-er	.	.	b	.	.	.
.	.	4B	got	.	.	.	.	.	.
.	.	8B	this	.	.	.	.	.	.
=151	=151	=151	=151	=151	=151	=151	=151	=151	=151
1IV	C:maj	16B	cra-	1r	.	(F	271.83	.	voice
.	.	16A	_	.	.	.	.	.	.
.	.	4G	_	.	.	.	.	.	.
.	.	4.G	-zy	.	.	f)	.	.	.
.	.	4r	.	.	.	.	.	.	.
=152	=152	=152	=152	=152	=152	=152	=152	=152	=152
1IV	C:maj	2r	.	1r	.	.	273.637	.	voice
.	.	4r	.	.	.	.	.	.	.
.	.	8r	.	.	.	.	.	.	.
.	.	8G	She	.	.	.	.	.	.
=153	=153	=153	=153	=153	=153	=153	=153	=153	=153
1ii	A:min	4A	thinks	1r	.	.	275.445	newline	voice
.	.	8A	a-	.	.	.	.	.	.
.	.	4.A	-bout	.	.	.	.	.	.
.	.	8B	a	.	.	.	.	.	.
.	.	8A	boy	.	.	.	.	.	.
=154	=154	=154	=154	=154	=154	=154	=154	=154	=154
1ii	A:min	8G	_	1r	.	.	277.237	.	voice
.	.	8r	.	.	.	.	.	.	.
.	.	8r	.	.	.	.	.	.	.
.	.	8G	she	.	.	.	.	.	.
.	.	8F#	knew	.	.	.	.	.	.
.	.	8G	in	.	.	.	.	.	.
.	.	8A	_	.	.	.	.	.	.
.	.	[8A	school	.	.	H	.	.	.
=155	=155	=155	=155	=155	=155	=155	=155	=155	=155
1V7	D:7	4.A]	_	1r	.	.	279.029	.	voice
.	.	16F#	_	.	.	.	.	.	.
.	.	16E	_	.	.	.	.	.	.
.	.	4D	_	.	.	.	.	.	.
.	.	4r	.	.	.	.	.	.	.
=156	=156	=156	=156	=156	=156	=156	=156	=156	=156
1V7	D:7	2.r	.	1r	.	.	280.821	.	voice
.	.	8r	.	.	.	.	.	.	.
.	.	8G	Did	.	.	.	.	.	.
=157	=157	=157	=157	=157	=157	=157	=157	=157	=157
1I	G:maj	8B	she	1r	.	.	282.613	newline	voice
.	.	4B	get	.	.	.	.	.	.
.	.	4.B	tired	.	.	.	.	.	.
.	.	8r	.	.	.	.	.	.	.
.	.	8G	or	.	.	.	.	.	.
=158	=158	=158	=158	=158	=158	=158	=158	=158	=158
1I7	G:maj7	8B	did	1r	.	.	284.41	.	voice
.	.	4.B	she	.	.	.	.	.	.
.	.	8B	just	.	.	.	.	.	.
.	.	4B	get	.	.	.	.	.	.
.	.	16B	la-	.	.	(F	.	.	.
.	.	16A	_	.	.	.	.	.	.
=159	=159	=159	=159	=159	=159	=159	=159	=159	=159
1IV	C:maj	4G	_	1r	.	.	286.207	.	voice
.	.	4G	-zy?	.	.	f)	.	.	.
.	.	2r	.	.	.	.	.	.	.
=160	=160	=160	=160	=160	=160	=160	=160	=160	=160
1IV	C:maj	2.r	.	1r	.	.	288.004	.	voice
.	.	8r	.	.	.	.	.	.	.
.	.	8G	She's	.	.	.	.	.	.
=161	=161	=161	=161	=161	=161	=161	=161	=161	=161
1ii	A:min	8A	so	1r	.	.	289.801	newline	voice
.	.	4A	far	.	.	.	.	.	.
.	.	4.A	gone	.	.	.	.	.	.
.	.	8B	she	.	.	.	.	.	.
.	.	8A	feels	.	.	A	.	.	.
=162	=162	=162	=162	=162	=162	=162	=162	=162	=162
1IV	C:maj	4G	_	1r	.	.	291.581	.	voice
.	.	4G	just	.	.	.	.	.	.
.	.	4E	like	.	.	.	.	.	.
.	.	8G	a	.	.	.	.	.	.
.	.	8G	fool	.	.	H	.	.	.
=163	=163	=163	=163	=163	=163	=163	=163	=163	=163
1I	G:maj	8A	_	1r	.	.	293.36	.	voice
.	.	4.G	_	.	.	.	.	.	.
.	.	2r	.	.	.	.	.	.	.
=164	=164	=164	=164	=164	=164	=164	=164	=164	=164
1I	G:maj	1r	.	1r	.	.	295.14	.	voice
=165	=165	=165	=165	=165	=165	=165	=165	=165	=165
*>Letter>B	*>Letter>B	*>Letter>B	*>Letter>B	*>Letter>B	*>Letter>B	*>Letter>B	*>Letter>B	*>Letter>B	*>Letter>B
*>Label>Verse	*>Label>Verse	*>Label>Verse	*>Label>Verse	*>Label>Verse	*>Label>Verse	*>Label>Verse	*>Label>Verse	*>Label>Verse	*>Label>Verse
1I	G:maj	8B	My	8d	My	.	296.92	newline	voice
.	.	4A	oh	4c	oh	.	.	.	.
.	.	4B	my	4d	my	.	.	.	.
.	.	8r	.	8r	.	.	.	.	.
.	.	8r	.	8r	.	.	.	.	.
.	.	8G	You	8B	You	.	.	.	.
=166	=166	=166	=166	=166	=166	=166	=166	=166	=166
1I7	G:maj7	8B	sure	8d	sure	.	298.714	.	voice
.	.	4.B	know	4.d	know	.	.	.	.
.	.	8B	how	8d	how	.	.	.	.
.	.	8A	to	8c	to	.	.	.	.
.	.	8G	a-	8B	a-	.	.	.	.
.	.	16B	-range	16d	-range	(F	.	.	.
.	.	16A	_	16c	_	.	.	.	.
=167	=167	=167	=167	=167	=167	=167	=167	=167	=167
1IV	C:maj	4G	_	4B	_	.	300.508	.	voice
.	.	2G	things	2B	things	f)	.	.	.
.	.	4r	.	4r	.	.	.	.	.
=168	=168	=168	=168	=168	=168	=168	=168	=168	=168
1IV	C:maj	2r	.	2r	.	.	302.302	.	voice
.	.	4.r	.	4.r	.	.	.	.	.
.	.	8G	You	8B	You	.	.	.	.
=169	=169	=169	=169	=169	=169	=169	=169	=169	=169
1ii	A:min	8A	set	8c	set	.	304.096	newline	voice
.	.	4.A	it	4.c	it	.	.	.	.
.	.	8A	up	8c	up	.	.	.	.
.	.	4A	so	4c	so	.	.	.	.
.	.	8A	well	8c	well	.	.	.	.
=170	=170	=170	=170	=170	=170	=170	=170	=170	=170
1ii	A:min	8G	_	8B	_	.	305.907	.	voice
.	.	8r	.	8r	.	.	.	.	.
.	.	8r	.	8r	.	.	.	.	.
.	.	4G	so	4B	so	.	.	.	.
.	.	4F#	care-	4A	care-	.	.	.	.
.	.	8G	-full-	8B	-full-	.	.	.	.
=171	=171	=171	=171	=171	=171	=171	=171	=171	=171
1V7	D:7	2.A	-y	2.c	-y	A	307.719	.	voice
.	.	4r	.	4r	.	.	.	.	.
=172	=172	=172	=172	=172	=172	=172	=172	=172	=172
1V7	D:7	2.r	.	2.r	.	.	309.53	.	voice
.	.	8A	Ain't	8d	Ain't	.	.	.	.
.	.	8G	it	8B	it	.	.	.	.
=173	=173	=173	=173	=173	=173	=173	=173	=173	=173
1I	G:maj	8B	fun-	8d	fun-	.	311.341	newline	voice
.	.	4.B	-ny	4.d	-ny	.	.	.	.
.	.	4B	how	4d	how	.	.	.	.
.	.	8B	your	8d	your	.	.	.	.
.	.	[8B	new	[8d	new	.	.	.	.
=174	=174	=174	=174	=174	=174	=174	=174	=174	=174
1I7	G:maj7	8B]	_	8d]	_	.	313.139	.	voice
.	.	4B	life	4d	life	.	.	.	.
.	.	8r	.	8r	.	.	.	.	.
.	.	8r	.	8r	.	.	.	.	.
.	.	8B	did-	8e	did-	.	.	.	.
.	.	8A	-n't	8d	-n't	.	.	.	.
.	.	16B	change	16e	change	(F	.	.	.
.	.	16A	_	16d	_	.	.	.	.
=175	=175	=175	=175	=175	=175	=175	=175	=175	=175
1IV	C:maj	4G	_	4B	_	.	314.938	.	voice
.	.	2G	things	2B	things	f)	.	.	.
.	.	4r	.	4r	.	.	.	.	.
=176	=176	=176	=176	=176	=176	=176	=176	=176	=176
1IV	C:maj	2r	.	2r	.	.	316.736	.	voice
.	.	4.r	.	4.r	.	.	.	.	.
.	.	8G	You're	8B	You're	.	.	.	.
=177	=177	=177	=177	=177	=177	=177	=177	=177	=177
1ii	A:min	4A	still	4c	still	.	318.535	newline	voice
.	.	8A	the	8c	the	.	.	.	.
.	.	4A	same	4c	same	.	.	.	.
.	.	8A	old	8c	old	.	.	.	.
.	.	4B	_	4d	_	.	.	.	.
=178	=178	=178	=178	=178	=178	=178	=178	=178	=178
1IV	C:maj	8A	girl	8c	girl	.	320.345	.	voice
.	.	8G	_	8B	_	.	.	.	.
.	.	4G	you	4B	you	.	.	.	.
.	.	4E	used	4G	used	.	.	.	.
.	.	8G	to	8B	to	.	.	.	.
.	.	[8G	be	[8B	be	A	.	.	.
=179	=179	=179	=179	=179	=179	=179	=179	=179	=179
1I	G:maj	4G]	_	4B]	_	.	322.155	.	voice
.	.	4r	.	4r	.	.	.	.	.
.	.	2r	.	2r	.	.	.	.	.
=180	=180	=180	=180	=180	=180	=180	=180	=180	=180
1I	G:maj	2r	.	2r	.	.	323.966	.	voice
.	.	8B	You	8d	You	.	.	.	.
.	.	4.d	can't	4.g	can't	.	.	.	.
=181	=181	=181	=181	=181	=181	=181	=181	=181	=181
*>Letter>C2	*>Letter>C2	*>Letter>C2	*>Letter>C2	*>Letter>C2	*>Letter>C2	*>Letter>C2	*>Letter>C2	*>Letter>C2	*>Letter>C2
*>Label>Chorus	*>Label>Chorus	*>Label>Chorus	*>Label>Chorus	*>Label>Chorus	*>Label>Chorus	*>Label>Chorus	*>Label>Chorus	*>Label>Chorus	*>Label>Chorus
1I	G:maj	[1d	hide	[1g	hide	C	325.776	newline	voice
=182	=182	=182	=182	=182	=182	=182	=182	=182	=182
1IVc	C:maj/5	4d]	_	4g]	_	.	327.59	.	voice
.	.	4d	your	4g	your	.	.	.	.
.	.	16B	ly-	16d	ly-	(C	.	.	.
.	.	16A	_	16c	_	.	.	.	.
.	.	8G	_	8B	_	.	.	.	.
.	.	8G	-in'	8B	-in'	c)	.	.	.
.	.	[8G	eyes	[8B	eyes	C	.	.	.
=183	=183	=183	=183	=183	=183	=183	=183	=183	=183
1I	G:maj	2.G]	_	2.B]	_	.	329.404	.	voice
.	.	4r	.	4r	.	.	.	.	.
=184	=184	=184	=184	=184	=184	=184	=184	=184	=184
1I	G:maj	2r	.	2r	.	.	331.218	.	voice
.	.	8B	And	8d	And	.	.	.	.
.	.	4.d	your	4.f#	your	.	.	.	.
=185	=185	=185	=185	=185	=185	=185	=185	=185	=185
1vi	E:min	1e	smile	8g	smile	C	333.033	newline	voice
.	.	.	.	8a	_	.	.	.	.
.	.	.	.	2.g	_	.	.	.	.
=186	=186	=186	=186	=186	=186	=186	=186	=186	=186
1iii	B:min	4d	_	4f#	_	.	334.826	.	voice
.	.	8d	is	8f#	is	.	.	.	.
.	.	8d	a	8f#	a	.	.	.	.
.	.	16B	thin	16d	thin	.	.	.	.
.	.	16A	_	16c	_	.	.	.	.
.	.	8G	_	8B	_	.	.	.	.
.	.	8G	dis-	8B	dis-	.	.	.	.
.	.	8A	_	8c	_	.	.	.	.
=187	=187	=187	=187	=187	=187	=187	=187	=187	=187
1ii	A:min	1A	-guise	1c	-guise	C	336.619	.	voice
=188	=188	=188	=188	=188	=188	=188	=188	=188	=188
1V7	D:7	2r	.	2r	.	.	338.412	.	voice
.	.	4B	thought	4d	thought	.	.	.	.
.	.	4d	by	4g	by	.	.	.	.
=189	=189	=189	=189	=189	=189	=189	=189	=189	=189
1I	G:maj	[1d	now	[1g	now	.	340.205	newline	voice
=190	=190	=190	=190	=190	=190	=190	=190	=190	=190
1Im7	G:7	4d]	_	4g]	_	.	342.004	.	voice
.	.	4d	you'd	4g	you'd	.	.	.	.
.	.	16B	re-	16d	re-	.	.	.	.
.	.	16A	_	16c	_	.	.	.	.
.	.	8G	_	8B	_	.	.	.	.
.	.	8G	-a-	8B	-a-	.	.	.	.
.	.	[8G	-lize	[8c	-lize	C	.	.	.
=191	=191	=191	=191	=191	=191	=191	=191	=191	=191
1IV	C:maj	1G]	_	1c]	_	.	343.802	.	voice
=192	=192	=192	=192	=192	=192	=192	=192	=192	=192
1II	A:maj	2A	_	2c#	_	.	345.601	.	voice
.	.	4.r	.	4.r	.	.	.	.	.
.	.	8G	there	8c	there	.	.	.	.
=193	=193	=193	=193	=193	=193	=193	=193	=193	=193
1ii	A:min	8A	ain't	8c	ain't	.	347.4	newline	voice
.	.	4A	no	4c	no	.	.	.	.
.	.	4.A	way	4.c	way	.	.	.	.
.	.	8B	to	8d	to	.	.	.	.
.	.	8A	hide	8c	hide	C	.	.	.
=194	=194	=194	=194	=194	=194	=194	=194	=194	=194
1V7	D:7	4G	_	4B	_	.	349.197	.	voice
.	.	4G	your	4B	your	.	.	.	.
.	.	4E	ly-	4B	ly-	(C	.	.	.
.	.	8G	-in'	8B	-in'	c)	.	.	.
.	.	[8G	eyes	[8B	eyes	C	.	.	.
=195	=195	=195	=195	=195	=195	=195	=195	=195	=195
1I	G:maj	1G]	_	1B]	_	.	350.994	newline	voice
=196	=196	=196	=196	=196	=196	=196	=196	=196	=196
1I7	G:maj7	2r	.	2r	.	.	352.807	.	voice
.	.	4.r	.	4.r	.	.	.	.	.
.	.	8G	there	8c	there	.	.	.	.
=197	=197	=197	=197	=197	=197	=197	=197	=197	=197
1ii	A:min	8A	ain't	8c	ain't	.	354.62	.	voice
.	.	4A	no	4c	no	.	.	.	.
.	.	4.A	way	4.c	way	.	.	.	.
.	.	8B	to	8d	to	.	.	.	.
.	.	8A	hide	8c	hide	C	.	.	.
=198	=198	=198	=198	=198	=198	=198	=198	=198	=198
1V7	D:7	4G	_	4B	_	.	356.433	.	voice
.	.	4G	your	4B	your	.	.	.	.
.	.	4E	ly-	4B	ly-	(C	.	.	.
.	.	8G	-in'	8B	-in'	c)	.	.	.
.	.	[8G	eyes	[8B	eyes	C	.	.	.
=199	=199	=199	=199	=199	=199	=199	=199	=199	=199
1I	G:maj	2G]	_	2B]	_	.	358.245	newline	voice
.	.	2r	.	2r	.	.	.	.	.
=200	=200	=200	=200	=200	=200	=200	=200	=200	=200
1I7	G:maj7	1r	.	1r	.	.	360.046	.	voice
=201	=201	=201	=201	=201	=201	=201	=201	=201	=201
1ii	A:min	8A	Ho-	8c	Ho-	.	361.846	.	voice
.	.	4.A	-ney	4.c	-ney	.	.	.	.
.	.	8A	you	8c	you	.	.	.	.
.	.	8A	can't	8c	can't	.	.	.	.
.	.	4B	_	4d	_	.	.	.	.
=202	=202	=202	=202	=202	=202	=202	=202	=202	=202
1V7	D:7	4A	hide	4c	hide	C	363.647	.	voice
.	.	4G	your	4B	your	.	.	.	.
.	.	4E	ly-	4B	ly-	(C	.	.	.
.	.	8G	-in'	8B	-in'	c)	.	.	.
.	.	[8G	eyes	[8B	eyes	C	.	.	.
=203	=203	=203	=203	=203	=203	=203	=203	=203	=203
1I	G:maj	2G]	_	2B]	_	.	365.447	newline	guitar
.	.	2r	.	2r	.	.	.	.	.
=204	=204	=204	=204	=204	=204	=204	=204	=204	=204
1I7	G:maj7	1r	.	1r	.	.	367.268	.	guitar
=205	=205	=205	=205	=205	=205	=205	=205	=205	=205
1ii	A:min	1r	.	1r	.	.	369.089	.	guitar
=206	=206	=206	=206	=206	=206	=206	=206	=206	=206
1V7	D:7	1r	.	1r	.	.	370.91	.	guitar
=207	=207	=207	=207	=207	=207	=207	=207	=207	=207
2I	G:maj	1r	.	1r	.	.	372.731	newline	guitar
2IV	C:maj	.	.	.	.	.	373.654	.	guitar
=208	=208	=208	=208	=208	=208	=208	=208	=208	=208
1I	G:maj	1r	.	1r	.	.	374.577	.	guitar
1r;	N	r;	.	r;	.	.	379.884	.	r
1r;	N	r;	.	r;	.	.	380.709	.	r
*-	*-	*-	*-	*-	*-	*-	*-	*-	*-
!!!BillboardChartDate: 1975/10/04
!!!BillboardPeak: 2
!!!BillboardWeeksOnChart: 14
!!!COC: Eagles
!!!ENC: Nathaniel Condit-Schultz
!!!EST: Awating manual error checking and editing.
!!!OTL: Lyin' Eyes
!!!RDF**harte: Chris Harte's syntax, used by MIREX
!!!RDF**harmony: **recip + pitch class of root + harmonic quality
!!!RDF**leadinstrument: original McGill primary instrumentation annotation
!!!RDF**phrase: newline = linebreak in original McGill transcription
!!!RDF**timestamp: McGill audio timestamp in seconds
!!!RDT: 2017/01/12/
!!!SampleActualRank: 18
!!!SampleID#: 0296
!!!SampleTargetRank: 19
!!!MBID: f4bd678a-f16b-479e-8df1-8233223c6878
